X:187
T: O WIE IST ES KALT GEWORDEN
N: B0222
O: Europa, Mitteleuropa, Deutschland
R: Jahreszeiten - Lied, Winter
M: 3/4
L: 1/8
K: Eb
EF | G2G2GA | G2F2
FG | A3EBA | G4
BA | F2F2GA | c2B2
ec | B2G2BA | G4

@@@ Tune index: 1990
